public/assets/logos/tailwind.svg

<svg width="110" height="66" viewBox="0 0 110 66" fill="none" xmlns="http://www.w3.org/2000/svg">
    <g clip-path="url(#clip0_222_141)">
        <path fill-rule="evenodd" clip-rule="evenodd"
              d="M53.9453 1.19836C39.6762 1.19836 30.758 8.28927 27.1908 22.4711C32.5417 15.3802 38.7844 12.7211 45.9189 14.4938C49.9896 15.5043 52.8989 18.4411 56.1194 21.6891C61.3652 26.9817 67.4375 33.1075 80.6999 33.1075C94.9689 33.1075 103.887 26.0165 107.454 11.8347C102.103 18.9256 95.8608 21.5847 88.7262 19.812C84.6556 18.8015 81.7463 15.8647 78.5258 12.6167C73.2799 7.32412 67.2076 1.19836 53.9453 1.19836ZM27.1908 33.1075C12.9217 33.1075 4.00349 40.1984 0.436218 54.3802C5.78713 47.2893 12.0299 44.6302 19.1644 46.4029C23.2351 47.4153 26.1444 50.3502 29.3648 53.5982C34.6107 58.8908 40.683 65.0166 53.9453 65.0166C68.2144 65.0166 77.1326 57.9256 80.6999 43.7438C75.3489 50.8347 69.1062 53.4938 61.9717 51.7211C57.901 50.7106 54.9917 47.7738 51.7713 44.5258C46.5254 39.2332 40.4531 33.1075 27.1908 33.1075Z"
              fill="#38BDF8"/>
    </g>
    <defs>
        <clipPath id="clip0_222_141">
            <rect width="109" height="65" fill="white" transform="translate(0.20874 0.38855)"/>
        </clipPath>
    </defs>
</svg>

<svg width="110" height="66" viewBox="0 0 110 66" fill="none" xmlns="http://www.w3.org/2000/svg"><g clip-path="url(#a)"><path fill-rule="evenodd" clip-rule="evenodd" d="M53.945 1.198c-14.269 0-23.187 7.091-26.754 21.273 5.35-7.09 11.593-9.75 18.728-7.977 4.07 1.01 6.98 3.947 10.2 7.195 5.246 5.293 11.319 11.419 24.58 11.419 14.27 0 23.188-7.091 26.755-21.273-5.351 7.09-11.593 9.75-18.728 7.977-4.07-1.01-6.98-3.947-10.2-7.195C73.28 7.324 67.208 1.198 53.946 1.198Zm-26.754 31.91c-14.27 0-23.188 7.09-26.755 21.272 5.351-7.09 11.594-9.75 18.728-7.977 4.071 1.012 6.98 3.947 10.2 7.195 5.247 5.293 11.319 11.419 24.581 11.419 14.27 0 23.188-7.091 26.755-21.273-5.351 7.09-11.594 9.75-18.728 7.977-4.071-1.01-6.98-3.947-10.2-7.195-5.247-5.293-11.319-11.419-24.581-11.419Z" fill="#38BDF8"/></g><defs><clipPath id="a"><path fill="#fff" d="M.209.389h109v65h-109z"/></clipPath></defs></svg>
